usr/share/icons/biglinux-icons-material-dark/16/actions/path-reverse.svg

<svg xmlns="http://www.w3.org/2000/svg" viewBox="0 0 16 16">
<defs id="defs3051">
<style id="current-color-scheme" type="text/css">
.ColorScheme-Text{color:#dedede}.ColorScheme-Highlight{color:#3daee9}
</style>
</defs>
<path d="M5 2 3 3.5 5 5V4h4V3H5zm8 0c0 2.419-1.718 4.82-4 5.379v1.016c2.837-.56 5-3.422 5-6.395zM7 7.605c-2.837.56-5 3.422-5 6.395h1c0-2.419 1.718-4.82 4-5.379zM11 11v1H7v1h4v1l2-1.5z" class="ColorScheme-Text" style="fill:currentColor;fill-opacity:1;stroke:none"/>
<path d="M6 6v4h4V6zm1 1h2v2H7Z" class="ColorScheme-Highlight" style="fill:currentColor;fill-opacity:1;stroke:none"/>
</svg>

<svg xmlns="http://www.w3.org/2000/svg" viewBox="0 0 16 16">
  <defs id="defs3051">
    <style type="text/css" id="current-color-scheme">
      .ColorScheme-Text {
        color:#dedede;
      }
      .ColorScheme-Highlight {
        color:#3daee9;
      }
      </style>
  </defs>
  <path 
        style="fill:currentColor;fill-opacity:1;stroke:none"
        d="M 5 2 L 3 3.5 L 5 5 L 5 4 L 9 4 L 9 3 L 5 3 L 5 2 z M 13 2 C 13 4.419 11.282 6.8209062 9 7.3789062 L 9 8.3945312 C 11.837 7.8345313 14 4.973 14 2 L 13 2 z M 7 7.6054688 C 4.163 8.1654687 2 11.027 2 14 L 3 14 C 3 11.581 4.718 9.1790938 7 8.6210938 L 7 7.6054688 z M 11 11 L 11 12 L 7 12 L 7 13 L 11 13 L 11 14 L 13 12.5 L 11 11 z "
        class="ColorScheme-Text"
        />
  <path
        style="fill:currentColor;fill-opacity:1;stroke:none"
        d="m 6,6 0,4 4,0 0,-4 z M 7,7 9,7 9,9 7,9 Z"
        class="ColorScheme-Highlight"
      />
</svg>
